X: 39220
T: Ta Dick Veg Er Yannoo Mie
R: jig
M: 6/8
K: Eminor
D|:EGG GFD|E2F G2A|B2B ABA|GFE D2 D|
EGG GFD|E2F G2A|Bdc BAG|1 FGF E2 D:|2 FGF E2 A||
Bee edB|AGA B3|B2B ABA|GFE DED|
[1 Bee edB|AGA B3|BGB dcB|AGF E2A:|
[2 EGG GFD|E2F G2A|Bdc BAG|FGF E2 A||

